X: 30256
T: Old Lancashire Hornpipe, The
R: three-two
M: 3/2
K: Dmajor
B2A2G2|:F3 ED2 f2e2d2|e2E4 B2A2G2|F3 ED2 f2e2dc|
d6 B2A2G2:|F2A2G2 B2A2B2|=c2E4 B2A2G2|F2A2G2 B2A2B^c|
d6 B2A2G2|F2A2G2 B2A2d2|e2E4 B2A2G2|F2A2G2 B2A2Bc|
d6 f2g2a2|:f3 ed2 f2e2d2|c2e4 f2g2a2|f3 ed2 f2e2dc|1 d6 f2g2a2:|2 d6 B2A2G2||

